X:4375
L:1/16
Q:1/4=100
M:2/4
K:D
 df | a2>b2a2g2 | f2d2d2 ef | g2f2e2d2 | cdBc A2 df | a2>b2a2g2 | f2d2d2 df | agce dcBA | 
 d6!fine! || de | f2>d2g2>e2 | f2d2d2 ef | (ag)(gf) (fe)(ed) | cdBc A2 de | f2>d2g2>e2 | 
 fAdf afdA | Bgfe dcBA | e4 d2 de | f>df>d g>eg>e | fAdf afdA | b2a2g2f2 | edcB A2 de | 
 f>df>d g>eg>e | fAdf afdA | Bgfe dcBA | e4 d2 df | a2ab abag | fgef d2ef | gagf efed | 
 cdBc A2 df | a2ba abag | fgef d2ef | g2B2c2B2 | e4 d2"^$" |]

